X:1
T:Title
%%score { ( 1 4 ) | ( 2 3 ) }
L:1/8
Q:1/4=100
M:3/8
K:Eb
V:1 treble nm="Grand Piano"
V:4 treble 
V:2 bass 
V:3 bass 
V:1
 [EG]2 [EG] | [FA]2 [DF] | [GB]2 [EG] | [EG]B[GB] | [Ac]2 [CE] | [CE]A[Ac] | [GB]2 [EG] | %7
w: J.~E.~Gould *|||||||
 [GB]2 [FA] | [EG]2 [EG] | [FA]2 [DF] | [GB]2 [EG] | [EG]B[GB] | [GB]A[FA] | [FA]G[EG] | G-[B,G]F | %15
w: ||||||||
 E3 | B2 B | c2 F | f2 d | c [B,DB]2 | [DAc]2 [EGB] | [B,FA]2 [B,EG] | [=A,EF]2 [A,EG] | %23
w: ||||||||
 F2- [F-_G] | [F-G]2 [F-G] | [FA]2 [DF] | [GB]2 [EG] | [EG]B[GB] | [GB]A[FA] | [FA]G[EG] | %30
w: |||||||
 G2 [A,F] |[M:11/8] [G,E]3 z z z z z z z2 |] %32
w: ||
V:2
 E,2 E, | E,2 E, | E,2 E, | z GE, | E,2 E, | z EE, | E,2 E, | B,,C,D, | E,2 E, | E,2 E, | E,2 E, | %11
 z GE, | z FA,, | z EB,, | B,,2 [B,,A,] | [E,G,]3 | [B,DF]2 [B,DF] | [=A,EF]2 [A,E] | %18
 [B,DF]2 [B,F] | [F,=A,E] B,,2 | B,,2 B,, | D,2 E, | C,2 z/ z/4 F/4 | B,,3 | [E,E]2 [E,E] | %25
 E,2 E, | E,2 E, | z GE, | z FA,, | z EB,, | z B,B,, |[M:11/8] E,3 z z z z z z z2 |] %32
V:3
 x3 | x3 | x3 | E,2 z | x3 | E,2 z | x3 | x3 | x3 | x3 | x3 | E,2 z | A,,2 z | B,,2 z | x3 | x3 | %16
 x3 | x3 | x3 | x3 | x3 | x3 | z z C, | x3 | x3 | x3 | x3 | E,2 z | A,,2 z | B,,2 z | B,,2 z | %31
[M:11/8] x11 |] %32
V:4
 x3 | x3 | x3 | x3 | x3 | x3 | x3 | x3 | x3 | x3 | x3 | x3 | x3 | x3 | E z z | x3 | x3 | x3 | x3 | %19
 x3 | x3 | x3 | x3 | [B,D]3 | x3 | x3 | x3 | x3 | x3 | x3 | E z z |[M:11/8] x11 |] %32

